flaticon/business/presentation-7.svg

<svg xmlns="http://www.w3.org/2000/svg" width="32" height="32" viewBox="0 0 24 24">
    <path d="M 24 3.199219 L 24 0 L 0 0 L 0 3.199219 L 0.800781 3.199219 L 0.800781 19.199219 L 0.398438 19.199219 C 0.179688 19.199219 0 19.378906 0 19.601562 C 0 19.820312 0.179688 20 0.398438 20 L 11.601562 20 L 11.601562 20.800781 C 11.601562 20.820312 11.609375 20.835938 11.609375 20.855469 C 10.917969 21.027344 10.398438 21.652344 10.398438 22.398438 C 10.398438 23.28125 11.117188 24 12 24 C 12.882812 24 13.601562 23.28125 13.601562 22.398438 C 13.601562 21.652344 13.082031 21.027344 12.390625 20.855469 C 12.390625 20.835938 12.398438 20.820312 12.398438 20.800781 L 12.398438 20 L 23.601562 20 C 23.820312 20 24 19.820312 24 19.601562 C 24 19.378906 23.820312 19.199219 23.601562 19.199219 L 23.199219 19.199219 L 23.199219 3.199219 Z M 12.800781 22.398438 C 12.800781 22.839844 12.441406 23.199219 12 23.199219 C 11.558594 23.199219 11.199219 22.839844 11.199219 22.398438 C 11.199219 21.957031 11.558594 21.601562 12 21.601562 C 12.441406 21.601562 12.800781 21.957031 12.800781 22.398438 Z M 0.800781 0.800781 L 23.199219 0.800781 L 23.199219 2.398438 L 0.800781 2.398438 Z M 22.398438 19.199219 L 1.601562 19.199219 L 1.601562 3.199219 L 22.398438 3.199219 Z M 22.398438 19.199219"/>
    <path d="M14.398438 18C14.621094 18 14.800781 17.820312 14.800781 17.601562L14.800781 16.398438C14.800781 16.179688 14.621094 16 14.398438 16 14.179688 16 14 16.179688 14 16.398438L14 17.601562C14 17.820312 14.179688 18 14.398438 18zM16 14.398438C15.777344 14.398438 15.601562 14.578125 15.601562 14.800781L15.601562 17.601562C15.601562 17.820312 15.777344 18 16 18 16.222656 18 16.398438 17.820312 16.398438 17.601562L16.398438 14.800781C16.398438 14.578125 16.222656 14.398438 16 14.398438zM17.601562 15.199219C17.378906 15.199219 17.199219 15.378906 17.199219 15.601562L17.199219 17.601562C17.199219 17.820312 17.378906 18 17.601562 18 17.820312 18 18 17.820312 18 17.601562L18 15.601562C18 15.378906 17.820312 15.199219 17.601562 15.199219zM19.199219 12.398438C18.980469 12.398438 18.800781 12.578125 18.800781 12.800781L18.800781 17.601562C18.800781 17.820312 18.980469 18 19.199219 18 19.421875 18 19.601562 17.820312 19.601562 17.601562L19.601562 12.800781C19.601562 12.578125 19.421875 12.398438 19.199219 12.398438zM20.800781 14C20.578125 14 20.398438 14.179688 20.398438 14.398438L20.398438 17.601562C20.398438 17.820312 20.578125 18 20.800781 18 21.019531 18 21.199219 17.820312 21.199219 17.601562L21.199219 14.398438C21.199219 14.179688 21.019531 14 20.800781 14zM4 16L8 16C8.222656 16 8.398438 15.820312 8.398438 15.601562 8.398438 15.378906 8.222656 15.199219 8 15.199219L4 15.199219C3.777344 15.199219 3.601562 15.378906 3.601562 15.601562 3.601562 15.820312 3.777344 16 4 16zM10 16.800781L4 16.800781C3.777344 16.800781 3.601562 16.980469 3.601562 17.199219 3.601562 17.421875 3.777344 17.601562 4 17.601562L10 17.601562C10.222656 17.601562 10.398438 17.421875 10.398438 17.199219 10.398438 16.980469 10.222656 16.800781 10 16.800781zM7.800781 13.601562C8.953125 13.601562 10.003906 13.171875 10.8125 12.46875 10.824219 12.460938 10.835938 12.457031 10.847656 12.445312 10.851562 12.441406 10.855469 12.429688 10.859375 12.425781 11.710938 11.664062 12.277344 10.597656 12.378906 9.394531L12.386719 9.386719 12.394531 9.210938C12.398438 9.175781 12.394531 9.144531 12.394531 9.109375 12.394531 9.070312 12.398438 9.035156 12.398438 9 12.398438 8.953125 12.394531 8.902344 12.394531 8.855469 12.390625 8.785156 12.386719 8.714844 12.382812 8.644531 12.375 8.546875 12.363281 8.453125 12.351562 8.359375 12.34375 8.304688 12.335938 8.246094 12.324219 8.191406 12.304688 8.085938 12.28125 7.980469 12.257812 7.878906 12.246094 7.832031 12.234375 7.785156 12.21875 7.742188 12.191406 7.636719 12.15625 7.53125 12.117188 7.429688 12.101562 7.382812 12.085938 7.339844 12.070312 7.296875 12.03125 7.199219 11.988281 7.105469 11.941406 7.011719 11.917969 6.964844 11.894531 6.914062 11.871094 6.863281 11.828125 6.785156 11.785156 6.710938 11.738281 6.636719 11.703125 6.574219 11.667969 6.515625 11.628906 6.453125 11.59375 6.402344 11.554688 6.351562 11.515625 6.300781 11.460938 6.226562 11.40625 6.148438 11.347656 6.074219 11.253906 5.960938 11.15625 5.851562 11.050781 5.746094 10.953125 5.648438 10.847656 5.554688 10.742188 5.46875 10.734375 5.460938 10.730469 5.457031 10.722656 5.453125 10.65625 5.394531 10.582031 5.34375 10.511719 5.292969 10.453125 5.253906 10.398438 5.207031 10.339844 5.167969 10.289062 5.136719 10.234375 5.105469 10.179688 5.074219 10.097656 5.023438 10.011719 4.972656 9.925781 4.925781 9.886719 4.90625 9.847656 4.886719 9.808594 4.871094 9.707031 4.816406 9.597656 4.769531 9.488281 4.726562 9.460938 4.714844 9.429688 4.703125 9.398438 4.691406 9.28125 4.648438 9.164062 4.609375 9.042969 4.574219 9.011719 4.566406 8.980469 4.558594 8.949219 4.550781 8.832031 4.519531 8.714844 4.496094 8.59375 4.472656 8.550781 4.464844 8.503906 4.460938 8.460938 4.453125 8.355469 4.4375 8.253906 4.425781 8.144531 4.417969 8.082031 4.414062 8.019531 4.410156 7.953125 4.410156 7.902344 4.40625 7.851562 4.398438 7.800781 4.398438 7.761719 4.398438 7.726562 4.40625 7.691406 4.40625 7.65625 4.40625 7.621094 4.402344 7.585938 4.40625L7.429688 4.414062 7.425781 4.417969C5.0625 4.609375 3.199219 6.589844 3.199219 9 3.199219 11.535156 5.261719 13.601562 7.800781 13.601562zM10.5625 11.597656L8.566406 9.601562 11.546875 9.601562C11.425781 10.367188 11.074219 11.058594 10.5625 11.597656zM8.121094 5.214844C8.160156 5.21875 8.203125 5.222656 8.242188 5.226562 8.335938 5.238281 8.425781 5.253906 8.511719 5.269531 8.539062 5.273438 8.566406 5.277344 8.59375 5.285156 8.703125 5.308594 8.808594 5.335938 8.914062 5.367188 8.921875 5.371094 8.929688 5.371094 8.933594 5.371094 10.121094 5.742188 11.054688 6.679688 11.425781 7.867188 11.429688 7.871094 11.429688 7.878906 11.433594 7.886719 11.464844 7.992188 11.492188 8.097656 11.515625 8.207031 11.519531 8.234375 11.527344 8.261719 11.53125 8.289062 11.546875 8.375 11.5625 8.464844 11.570312 8.554688 11.578125 8.597656 11.582031 8.640625 11.585938 8.679688 11.585938 8.71875 11.589844 8.761719 11.589844 8.800781L8 8.800781 8 5.210938C8.039062 5.210938 8.078125 5.210938 8.121094 5.214844zM7.199219 5.253906L7.199219 9.199219C7.199219 9.199219 7.199219 9.203125 7.199219 9.203125L7.214844 9.601562 7.433594 9.601562 9.957031 12.125C9.34375 12.550781 8.601562 12.800781 7.800781 12.800781 5.703125 12.800781 4 11.09375 4 9 4 7.109375 5.390625 5.542969 7.199219 5.253906zM15.601562 7.601562L18.800781 7.601562C19.019531 7.601562 19.199219 7.421875 19.199219 7.199219 19.199219 6.980469 19.019531 6.800781 18.800781 6.800781L15.601562 6.800781C15.378906 6.800781 15.199219 6.980469 15.199219 7.199219 15.199219 7.421875 15.378906 7.601562 15.601562 7.601562zM20.515625 6.914062C20.445312 6.992188 20.398438 7.097656 20.398438 7.199219 20.398438 7.304688 20.445312 7.40625 20.515625 7.484375 20.589844 7.554688 20.695312 7.601562 20.800781 7.601562 20.902344 7.601562 21.007812 7.554688 21.085938 7.484375 21.15625 7.40625 21.199219 7.304688 21.199219 7.199219 21.199219 7.097656 21.15625 6.992188 21.085938 6.914062 20.9375 6.769531 20.664062 6.769531 20.515625 6.914062zM19.601562 5.601562L20.800781 5.601562C21.019531 5.601562 21.199219 5.421875 21.199219 5.199219 21.199219 4.980469 21.019531 4.800781 20.800781 4.800781L19.601562 4.800781C19.378906 4.800781 19.199219 4.980469 19.199219 5.199219 19.199219 5.421875 19.378906 5.601562 19.601562 5.601562zM15.601562 5.601562L16.398438 5.601562C16.621094 5.601562 16.800781 5.421875 16.800781 5.199219 16.800781 4.980469 16.621094 4.800781 16.398438 4.800781L15.601562 4.800781C15.378906 4.800781 15.199219 4.980469 15.199219 5.199219 15.199219 5.421875 15.378906 5.601562 15.601562 5.601562zM18 5.601562C18.105469 5.601562 18.207031 5.554688 18.285156 5.484375 18.355469 5.40625 18.398438 5.304688 18.398438 5.199219 18.398438 5.089844 18.355469 4.992188 18.285156 4.914062 18.136719 4.769531 17.863281 4.769531 17.714844 4.914062 17.644531 4.992188 17.601562 5.097656 17.601562 5.199219 17.601562 5.304688 17.644531 5.40625 17.714844 5.484375 17.792969 5.554688 17.894531 5.601562 18 5.601562zM18 5.601562"/>
</svg>

<svg xmlns="http://www.w3.org/2000/svg" width="32" height="32" viewBox="0 0 24 24">
    <path d="M24 3.2V0H0v3.2h.8v16H.399a.401.401 0 0 0 0 .8h11.204v.8c0 .02.007.036.007.055a1.596 1.596 0 0 0-1.21 1.543c0 .883.718 1.602 1.601 1.602s1.602-.719 1.602-1.602c0-.746-.52-1.37-1.211-1.543 0-.02.007-.035.007-.054V20h11.204a.4.4 0 0 0 0-.8h-.403v-16zM12.8 22.397a.802.802 0 0 1-1.6 0c0-.441.359-.796.8-.796.441 0 .8.355.8.796zM.8.801h22.4v1.597H.8zm21.598 18.398H1.602v-16h20.796zm0 0"/>
    <path d="M14.398 18c.223 0 .403-.18.403-.398v-1.204a.401.401 0 0 0-.801 0v1.204a.4.4 0 0 0 .398.398zm0 0M16 14.398a.398.398 0 0 0-.398.403v2.8a.398.398 0 1 0 .796 0v-2.8a.398.398 0 0 0-.398-.403zm0 0M17.602 15.2a.402.402 0 0 0-.403.402v2a.401.401 0 0 0 .801 0v-2a.401.401 0 0 0-.398-.403zm0 0M19.2 12.398a.401.401 0 0 0-.4.403v4.8a.4.4 0 0 0 .802 0v-4.8a.402.402 0 0 0-.403-.403zm0 0M20.8 14a.401.401 0 0 0-.402.398v3.204a.401.401 0 0 0 .801 0v-3.204a.4.4 0 0 0-.398-.398zm0 0M4 16h4c.223 0 .398-.18.398-.398A.398.398 0 0 0 8 15.199H4a.398.398 0 0 0-.398.403c0 .218.175.398.398.398zm0 0M10 16.8H4a.398.398 0 0 0-.398.4c0 .222.175.402.398.402h6c.223 0 .398-.18.398-.403a.398.398 0 0 0-.398-.398zm0 0M7.8 13.602c1.153 0 2.204-.43 3.013-1.133.011-.008.023-.012.035-.024.004-.004.007-.015.011-.02a4.576 4.576 0 0 0 1.52-3.03l.008-.008.008-.176c.003-.035 0-.066 0-.102 0-.039.003-.074.003-.109l-.003-.145-.012-.21a6.366 6.366 0 0 0-.031-.286c-.008-.054-.016-.113-.028-.168a7.343 7.343 0 0 0-.066-.312 1.396 1.396 0 0 0-.04-.137 2.916 2.916 0 0 0-.1-.312 5.083 5.083 0 0 0-.048-.133 3.742 3.742 0 0 0-.129-.285 5.377 5.377 0 0 1-.07-.149 4.302 4.302 0 0 0-.133-.226 4.536 4.536 0 0 0-.11-.184 3.832 3.832 0 0 0-.112-.152c-.055-.074-.11-.153-.168-.227a4.12 4.12 0 0 0-.605-.605c-.009-.008-.013-.012-.02-.016-.067-.058-.141-.11-.211-.16-.059-.04-.114-.086-.172-.125-.05-.031-.106-.063-.16-.094a5.397 5.397 0 0 0-.254-.148c-.04-.02-.078-.04-.117-.055a2.965 2.965 0 0 0-.32-.144l-.09-.036a5.405 5.405 0 0 0-.356-.117l-.094-.023a5.215 5.215 0 0 0-.355-.078c-.043-.008-.09-.012-.133-.02a4.123 4.123 0 0 0-.508-.043c-.05-.004-.101-.012-.152-.012-.04 0-.074.008-.11.008-.035 0-.07-.004-.105 0l-.156.008-.004.004A4.604 4.604 0 0 0 3.199 9a4.607 4.607 0 0 0 4.602 4.602zm2.763-2.004L8.566 9.602h2.98a3.749 3.749 0 0 1-.983 1.996zM8.12 5.215l.121.012c.094.011.184.027.27.043a4.27 4.27 0 0 1 .422.102 3.808 3.808 0 0 1 2.492 2.495c.004.004.004.012.008.02.03.105.058.21.082.32l.015.082c.016.086.031.176.04.266.007.043.011.086.015.125 0 .039.004.082.004.12H8V5.21c.04 0 .078 0 .121.005zm-.922.039v3.949l.016.399h.219l2.523 2.523a3.767 3.767 0 0 1-2.156.676A3.805 3.805 0 0 1 4 9c0-1.89 1.39-3.457 3.2-3.746zm0 0M15.602 7.602H18.8a.401.401 0 0 0 0-.801h-3.2a.401.401 0 1 0 0 .8zm0 0M20.516 6.914a.442.442 0 0 0-.118.285c0 .106.047.207.118.285.074.07.18.118.285.118a.442.442 0 0 0 .285-.118.43.43 0 0 0 .113-.285.438.438 0 0 0-.113-.285.43.43 0 0 0-.57 0zm0 0M19.602 5.602H20.8a.401.401 0 0 0 0-.801h-1.2a.401.401 0 1 0 0 .8zm0 0M15.602 5.602h.796a.401.401 0 0 0 0-.8l-.796-.001a.401.401 0 1 0 0 .8zm0 0M18 5.602a.434.434 0 0 0 .285-.118.43.43 0 0 0 .113-.285.423.423 0 0 0-.113-.285.43.43 0 0 0-.57 0 .438.438 0 0 0-.113.285.43.43 0 0 0 .113.285c.078.07.18.118.285.118zm0 0"/>
</svg>
